src/icons/gleam.svg

<svg viewBox="0 0 24 24" xmlns="http://www.w3.org/2000/svg">
  <path
    d="M12.717 2.53L12.69 2.535L12.252 2.627L12.032 2.961L12.072 3.371L11.885 3.678L11.926 3.73C11.926 3.73 11.989 3.807 11.957 3.926C11.941 3.986 11.843 4.244 11.752 4.469C11.662 4.694 11.576 4.899 11.576 4.899L11.559 4.941L11.58 4.979C11.5419 5.06078 11.5244 5.15062 11.5289 5.24072C11.5334 5.33082 11.5599 5.41845 11.606 5.496C11.663 5.596 11.641 5.696 11.6 5.783C11.5742 5.83675 11.5405 5.8863 11.5 5.93L11.487 5.945L11.34 6.377L11.317 6.559L11.346 6.625L11.289 6.67L10.985 7.615L10.949 7.898L10.852 8.297L10.656 8.857L10.606 9.15L10.524 9.492L10.406 9.762L10.322 9.918L10.17 10.378L10.059 10.868L10.551 11.217L11.401 11.094L11.985 10.328L12.265 9.557L12.447 8.705L12.559 8.075L12.625 7.736L12.799 6.93L12.852 6.457L12.979 6.067L13 5.738L13.082 5.162L13.119 4.686L13.203 4.412L13.258 3.787L13.227 3.641L13.346 3.273L13.268 3.18L13.298 3.01L13.154 2.7L12.717 2.53ZM2.059 5.442L2.019 5.46L1.444 5.687L1.186 5.97L2.079 7.112L2.405 7.144L2.672 7.597L3.129 7.769L3.198 7.929L3.555 8.214L4.487 8.892L5.151 9.325L6.463 10.38L6.575 10.589L6.94 10.79L7.407 11.189L7.995 11.706L8.096 11.929L8.721 11.972L9.377 11.122L9.371 10.517L7.633 9.122L6.363 8.2L5.118 7.362L4.164 6.847L4.108 6.707L3.043 6.079L2.637 5.755L2.059 5.442ZM19.971 10.97L19.819 11.104L19.586 11.042L18.627 11.182L18.157 11.073L18.177 11.204C18.061 11.139 17.937 11.155 17.834 11.169C17.729 11.183 17.647 11.188 17.602 11.163C17.478 11.094 17.341 11.129 17.241 11.167C17.171 11.193 17.151 11.21 17.121 11.227L16.858 11.077L16.485 11.243L16.085 11.203L15.665 11.185L15.215 11.265L14.963 11.202L14.346 11.269L14.02 11.185L13.98 11.233C13.98 11.233 13.953 11.269 13.918 11.296C13.9038 11.3069 13.8879 11.3153 13.871 11.321C13.861 11.324 13.867 11.323 13.867 11.323C13.78 11.273 13.689 11.283 13.614 11.292C13.539 11.3 13.479 11.313 13.479 11.313L13.471 11.317L13.223 11.435L12.428 11.567L12.407 11.595C12.407 11.595 12.287 11.738 12.18 11.899C12.1281 11.9766 12.0835 12.059 12.047 12.145C12.0298 12.1843 12.0194 12.2262 12.016 12.269C12.0146 12.2935 12.0186 12.3181 12.0277 12.3409C12.0369 12.3637 12.051 12.3843 12.069 12.401C12.067 12.4 12.079 12.421 12.08 12.466C12.079 12.5213 12.072 12.5763 12.059 12.63C12.041 12.7067 12.0183 12.7821 11.991 12.856L11.965 12.919L12.426 13.286L12.896 13.349L13.186 13.255L14.136 13.081L14.321 13.005L14.428 13.042L15.016 12.989L15.206 13.095L15.33 12.987L15.446 13.024L16.364 12.886L16.766 13.011L16.739 12.864C16.779 12.882 16.815 12.891 16.859 12.894C16.912 12.897 16.974 12.895 17.041 12.892C17.175 12.884 17.334 12.864 17.489 12.842C17.784 12.802 18.037 12.753 18.059 12.749L18.249 12.815L19.102 12.688L19.629 12.532L19.992 12.649L20.399 12.591L20.623 12.376L21.163 12.511L21.145 12.376C21.145 12.376 21.142 12.314 21.172 12.27C21.187 12.249 21.206 12.23 21.256 12.216C21.339 12.2003 21.4245 12.2037 21.506 12.226C21.782 12.284 21.956 12.249 22.063 12.183C22.1063 12.1563 22.1429 12.1201 22.17 12.077C22.1824 12.0562 22.1925 12.034 22.2 12.011L22.21 11.968L22.088 11.81L22.141 11.62L21.803 11.17L21.227 11.06L20.869 11.065L20.83 11.003L20.783 11.001C20.783 11.001 20.536 10.979 20.334 11.046C20.227 11.082 20.1 10.974 20.1 10.974L19.961 11.101L19.971 10.97ZM9.03 13.117L8.997 13.135L8.339 13.485L8.109 13.705L7.936 14.061L8.139 14.633L8.458 14.928L8.764 15.393L4.962 18.551L4.842 18.721L4.044 19.336L3.716 19.67L3.157 20.092L3.067 20.227L2.915 20.672L3.3 21.203L3.759 20.893L3.966 20.986L4.132 20.787L4.233 20.834L4.962 20.262L5.2 20.129L5.487 20.061L5.831 19.795L5.791 19.745L5.997 19.675L6.413 19.316L6.686 19.24L7.014 19.016L7.155 18.748L7.186 18.727L7.298 18.775L7.818 18.229L8.358 17.937L9.46 17.014L9.917 18.297L10.169 18.672L10.315 19.301L10.528 19.383L10.516 19.416L10.628 20.166L10.821 20.346L10.741 20.672L11.057 20.836C11.0457 20.8884 11.0513 20.943 11.073 20.992C11.099 21.059 11.145 21.139 11.221 21.246C11.385 21.476 11.59 21.536 11.743 21.523C11.8363 21.5145 11.9262 21.4836 12.005 21.433L12.028 21.418L12.214 20.973L11.958 19.582L11.733 18.49L11.458 17.898L11.264 17.346V17.344C11.264 17.342 11.213 17.189 11.159 17.008C11.1088 16.8484 11.0687 16.6857 11.039 16.521C11.0273 16.3915 10.9924 16.2652 10.936 16.148L10.934 16.145L10.792 15.844L10.982 15.666L11.54 15.018L11.62 14.289L10.932 13.527L10.448 13.723L10.069 14.129L9.487 13.262L9.03 13.117Z"
    fill="#EA80FC"
  />
</svg>

<svg viewBox="0 0 24 24" xmlns="http://www.w3.org/2000/svg">
  <path
    d="m12.717 2.53-.027.005-.438.092-.22.334.04.41-.187.307.041.052s.063.077.031.196c-.016.06-.114.318-.205.543-.09.225-.176.43-.176.43l-.017.042.021.038a.554.554 0 0 0 .026.517c.057.1.035.2-.006.287a.593.593 0 0 1-.1.147l-.013.015-.147.432-.023.182.029.066-.057.045-.304.945-.036.283-.097.399-.196.56-.05.293-.082.342-.118.27-.084.156-.152.46-.111.49.492.349.85-.123.584-.766.28-.771.182-.852.112-.63.066-.339.174-.806.053-.473.127-.39.021-.329.082-.576.037-.476.084-.274.055-.625-.031-.146.119-.368-.078-.093.03-.17-.144-.31-.437-.17zM2.059 5.442l-.04.018-.575.227-.258.283.893 1.142.326.032.267.453.457.172.069.16.357.285.932.678.664.433 1.312 1.055.112.209.365.201.467.399.588.517.101.223.625.043.656-.85-.006-.605-1.738-1.395-1.27-.922-1.245-.838-.954-.515-.056-.14-1.065-.628-.406-.324-.578-.313zm17.912 5.528-.152.134-.233-.062-.959.14-.47-.109.02.131c-.116-.065-.24-.049-.343-.035-.105.014-.187.019-.232-.006-.124-.069-.261-.034-.361.004-.07.026-.09.043-.12.06l-.263-.15-.373.166-.4-.04-.42-.018-.45.08-.252-.063-.617.067-.326-.084-.04.048s-.027.036-.062.063a.163.163 0 0 1-.047.025c-.01.003-.004.002-.004.002-.087-.05-.178-.04-.253-.031-.075.008-.135.021-.135.021l-.008.004-.248.118-.795.132-.021.028s-.12.143-.227.304a1.49 1.49 0 0 0-.133.246.385.385 0 0 0-.031.124.167.167 0 0 0 .053.132c-.002-.001.01.02.011.065a.756.756 0 0 1-.021.164 1.899 1.899 0 0 1-.068.226l-.026.063.461.367.47.063.29-.094.95-.174.185-.076.107.037.588-.053.19.106.124-.108.116.037.918-.138.402.125-.027-.147c.04.018.076.027.12.03.053.003.115.001.182-.002.134-.008.293-.028.448-.05.295-.04.548-.089.57-.093l.19.066.853-.127.527-.156.363.117.407-.058.224-.215.54.135-.018-.135s-.003-.062.027-.106c.015-.021.034-.04.084-.054a.556.556 0 0 1 .25.01c.276.058.45.023.557-.043a.332.332 0 0 0 .107-.106.326.326 0 0 0 .03-.066l.01-.043-.122-.158.053-.19-.338-.45-.576-.11-.358.005-.039-.062-.047-.002s-.247-.022-.449.045c-.107.036-.234-.072-.234-.072l-.139.127.01-.131zM9.03 13.117l-.033.018-.658.35-.23.22-.173.356.203.572.319.295.306.465-3.802 3.158-.12.17-.798.615-.328.334-.559.422-.09.135-.152.445.385.531.459-.31.207.093.166-.199.101.047.729-.572.238-.133.287-.068.344-.266-.04-.05.206-.07.416-.359.273-.076.328-.224.141-.268.031-.021.112.048.52-.546.54-.292 1.102-.923.457 1.283.252.375.146.629.213.082-.012.033.112.75.193.18-.08.326.316.164a.254.254 0 0 0 .016.156c.026.067.072.147.148.254.164.23.369.29.522.277a.582.582 0 0 0 .262-.09l.023-.015.186-.445-.256-1.391-.225-1.092-.275-.592-.194-.552v-.002c0-.002-.051-.155-.105-.336a3.977 3.977 0 0 1-.12-.487 1.086 1.086 0 0 0-.103-.373l-.002-.003-.142-.301.19-.178.558-.648.08-.729-.688-.762-.484.196-.379.406-.582-.867-.457-.145z"
    color="#000"
    fill="#ea80fc"
    style="-inkscape-stroke: none"
  />
</svg>
